src/cmd/sc_sharedocument.svg

<?xml version="1.0" encoding="UTF-8" standalone="no"?>
<svg
   xmlns:dc="http://purl.org/dc/elements/1.1/"
   xmlns:cc="http://creativecommons.org/ns#"
   xmlns:rdf="http://www.w3.org/1999/02/22-rdf-syntax-ns#"
   xmlns:svg="http://www.w3.org/2000/svg"
   xmlns="http://www.w3.org/2000/svg"
   xmlns:sodipodi="http://sodipodi.sourceforge.net/DTD/sodipodi-0.dtd"
   xmlns:inkscape="http://www.inkscape.org/namespaces/inkscape"
   viewBox="0 0 16 16"
   version="1.1"
   id="svg4"
   sodipodi:docname="sc_sharedocument.svg"
   inkscape:version="0.92.5 (2060ec1f9f, 2020-04-08)"
   inkscape:export-filename="/home/jupiter007/Libreoffice yaru theme fullcolor/build/cmd/sc_sharedocument.png"
   inkscape:export-xdpi="96"
   inkscape:export-ydpi="96">
  <metadata
     id="metadata10">
    <rdf:RDF>
      <cc:Work
         rdf:about="">
        <dc:format>image/svg+xml</dc:format>
        <dc:type
           rdf:resource="http://purl.org/dc/dcmitype/StillImage" />
      </cc:Work>
    </rdf:RDF>
  </metadata>
  <defs
     id="defs8" />
  <sodipodi:namedview
     pagecolor="#ffffff"
     bordercolor="#666666"
     borderopacity="1"
     objecttolerance="10"
     gridtolerance="10"
     guidetolerance="10"
     inkscape:pageopacity="0"
     inkscape:pageshadow="2"
     inkscape:window-width="1920"
     inkscape:window-height="1011"
     id="namedview6"
     showgrid="true"
     inkscape:zoom="22.627417"
     inkscape:cx="1.3350393"
     inkscape:cy="2.9406184"
     inkscape:window-x="0"
     inkscape:window-y="32"
     inkscape:window-maximized="1"
     inkscape:current-layer="svg4">
    <inkscape:grid
       type="xygrid"
       id="grid1089" />
  </sodipodi:namedview>
  <path
     style="opacity:0.7;fill:#000000;fill-opacity:1;fill-rule:evenodd;stroke:#000000;stroke-width:2;stroke-linecap:butt;stroke-linejoin:round;stroke-miterlimit:4;stroke-dasharray:none;stroke-opacity:1"
     d="m 11.029297,2.0019531 a 2,2 0 0 0 -2.0000001,2 2,2 0 0 0 2.0000001,2 2,2 0 0 0 2,-2 2,2 0 0 0 -2,-2 z m 0,1 a 1,1 0 0 1 1,1 1,1 0 0 1 -1,1 1,1 0 0 1 -1,-1 1,1 0 0 1 1,-1 z M 8.1035159,5.0664062 5.4472657,6.5996093 A 2,2 0 0 0 3.0234375,6.2675781 2,2 0 0 0 2.2910157,9 2,2 0 0 0 5.0234375,9.7324221 2,2 0 0 0 5.4589844,9.3886721 l -0.00586,0.01172 2.6542965,1.5312499 0.5,-0.865235 -2.6562496,-1.5332026 -0.00781,0.015625 A 2,2 0 0 0 5.9492213,7.464845 L 8.6035159,5.9316406 Z M 4,7 A 1,1 0 0 1 4.8886719,7.5 1,1 0 0 1 4.5234375,8.8652343 1,1 0 0 1 3.15625,8.5 1,1 0 0 1 3.5234375,7.1328125 1,1 0 0 1 4,7 Z m 7.029297,3.001953 a 2,2 0 0 0 -2.0000001,2 2,2 0 0 0 2.0000001,2 2,2 0 0 0 2,-2 2,2 0 0 0 -2,-2 z m 0,1 a 1,1 0 0 1 1,1 1,1 0 0 1 -1,1 1,1 0 0 1 -1,-1 1,1 0 0 1 1,-1 z"
     id="path1107"
     inkscape:connector-curvature="0" />
  <path
     style="opacity:1;fill:#ffffff;fill-opacity:1;fill-rule:evenodd;stroke:none;stroke-width:2;stroke-linecap:butt;stroke-linejoin:round;stroke-miterlimit:4;stroke-dasharray:none;stroke-opacity:1"
     d="M 8.1035159,5.0664062 5.4472657,6.5996093 A 2,2 0 0 0 3.0234375,6.2675781 2,2 0 0 0 2.2910157,9 2,2 0 0 0 5.0234375,9.7324221 2,2 0 0 0 5.4589844,9.3886721 l -0.00586,0.01172 2.6542965,1.5312499 0.5,-0.865235 -2.6562496,-1.5332026 -0.00781,0.015625 A 2,2 0 0 0 5.9492213,7.464845 L 8.6035159,5.9316406 Z M 4,7 A 1,1 0 0 1 4.8886719,7.5 1,1 0 0 1 4.5234375,8.8652343 1,1 0 0 1 3.15625,8.5 1,1 0 0 1 3.5234375,7.1328125 1,1 0 0 1 4,7 Z"
     id="path1091"
     inkscape:connector-curvature="0" />
  <path
     id="path1096"
     d="m 11.029297,2.0019531 a 2,2 0 0 0 -2.0000001,2 2,2 0 0 0 2.0000001,2 2,2 0 0 0 2,-2 2,2 0 0 0 -2,-2 z m 0,1 a 1,1 0 0 1 1,1 1,1 0 0 1 -1,1 1,1 0 0 1 -1,-1 1,1 0 0 1 1,-1 z"
     style="opacity:1;fill:#ffffff;fill-opacity:1;fill-rule:evenodd;stroke:none;stroke-width:2;stroke-linecap:butt;stroke-linejoin:round;stroke-miterlimit:4;stroke-dasharray:none;stroke-opacity:1"
     inkscape:connector-curvature="0" />
  <path
     inkscape:connector-curvature="0"
     style="opacity:1;fill:#ffffff;fill-opacity:1;fill-rule:evenodd;stroke:none;stroke-width:2;stroke-linecap:butt;stroke-linejoin:round;stroke-miterlimit:4;stroke-dasharray:none;stroke-opacity:1"
     d="m 11.029297,10.001953 a 2,2 0 0 0 -2.0000001,2 2,2 0 0 0 2.0000001,2 2,2 0 0 0 2,-2 2,2 0 0 0 -2,-2 z m 0,1 a 1,1 0 0 1 1,1 1,1 0 0 1 -1,1 1,1 0 0 1 -1,-1 1,1 0 0 1 1,-1 z"
     id="path1098" />
</svg>

<?xml version="1.0" encoding="UTF-8" standalone="no"?>
<svg
   xmlns:dc="http://purl.org/dc/elements/1.1/"
   xmlns:cc="http://creativecommons.org/ns#"
   xmlns:rdf="http://www.w3.org/1999/02/22-rdf-syntax-ns#"
   xmlns:svg="http://www.w3.org/2000/svg"
   xmlns="http://www.w3.org/2000/svg"
   xmlns:xlink="http://www.w3.org/1999/xlink"
   xmlns:sodipodi="http://sodipodi.sourceforge.net/DTD/sodipodi-0.dtd"
   xmlns:inkscape="http://www.inkscape.org/namespaces/inkscape"
   viewBox="0 0 16 16"
   version="1.1"
   id="svg4"
   sodipodi:docname="sc_sharedocument.svg"
   inkscape:version="1.0.1 (3bc2e813f5, 2020-09-07)"
   inkscape:export-filename="/home/jupiter007/Libreoffice yaru theme fullcolor/build/cmd/sc_sharedocument.png"
   inkscape:export-xdpi="96"
   inkscape:export-ydpi="96">
  <metadata
     id="metadata10">
    <rdf:RDF>
      <cc:Work
         rdf:about="">
        <dc:format>image/svg+xml</dc:format>
        <dc:type
           rdf:resource="http://purl.org/dc/dcmitype/StillImage" />
        <dc:title></dc:title>
      </cc:Work>
    </rdf:RDF>
  </metadata>
  <defs
     id="defs8">
    <linearGradient
       inkscape:collect="always"
       id="linearGradient839">
      <stop
         style="stop-color:#151515;stop-opacity:1"
         offset="0"
         id="stop835" />
      <stop
         style="stop-color:#4d4d4d;stop-opacity:1"
         offset="1"
         id="stop837" />
    </linearGradient>
    <linearGradient
       inkscape:collect="always"
       xlink:href="#linearGradient839"
       id="linearGradient841"
       x1="7"
       y1="2"
       x2="7"
       y2="14"
       gradientUnits="userSpaceOnUse" />
  </defs>
  <sodipodi:namedview
     pagecolor="#808080"
     bordercolor="#666666"
     borderopacity="1"
     objecttolerance="10"
     gridtolerance="10"
     guidetolerance="10"
     inkscape:pageopacity="0"
     inkscape:pageshadow="2"
     inkscape:window-width="1920"
     inkscape:window-height="1016"
     id="namedview6"
     showgrid="true"
     inkscape:zoom="22.627417"
     inkscape:cx="2.5432849"
     inkscape:cy="4.5365988"
     inkscape:window-x="0"
     inkscape:window-y="27"
     inkscape:window-maximized="1"
     inkscape:current-layer="svg4"
     inkscape:document-rotation="0">
    <inkscape:grid
       type="xygrid"
       id="grid1089" />
  </sodipodi:namedview>
  <path
     style="opacity:1;fill:#000000;fill-opacity:1;fill-rule:evenodd;stroke:#ffffff;stroke-width:2;stroke-linecap:butt;stroke-linejoin:round;stroke-miterlimit:4;stroke-dasharray:none;stroke-opacity:1"
     d="m 11.029297,2.0019531 a 2,2 0 0 0 -2.0000001,2 2,2 0 0 0 2.0000001,2 2,2 0 0 0 2,-2 2,2 0 0 0 -2,-2 z m 0,1 a 1,1 0 0 1 1,1 1,1 0 0 1 -1,1 1,1 0 0 1 -1,-1 1,1 0 0 1 1,-1 z M 8.1035159,5.0664062 5.4472657,6.5996093 A 2,2 0 0 0 3.0234375,6.2675781 2,2 0 0 0 2.2910157,9 2,2 0 0 0 5.0234375,9.7324221 2,2 0 0 0 5.4589844,9.3886721 l -0.00586,0.01172 2.6542965,1.5312499 0.5,-0.865235 -2.6562496,-1.5332026 -0.00781,0.015625 A 2,2 0 0 0 5.9492213,7.464845 L 8.6035159,5.9316406 Z M 4,7 A 1,1 0 0 1 4.8886719,7.5 1,1 0 0 1 4.5234375,8.8652343 1,1 0 0 1 3.15625,8.5 1,1 0 0 1 3.5234375,7.1328125 1,1 0 0 1 4,7 Z m 7.029297,3.001953 a 2,2 0 0 0 -2.0000001,2 2,2 0 0 0 2.0000001,2 2,2 0 0 0 2,-2 2,2 0 0 0 -2,-2 z m 0,1 a 1,1 0 0 1 1,1 1,1 0 0 1 -1,1 1,1 0 0 1 -1,-1 1,1 0 0 1 1,-1 z"
     id="path1107"
     inkscape:connector-curvature="0" />
  <path
     id="path1091"
     style="opacity:1;fill:url(#linearGradient841);fill-opacity:1;fill-rule:evenodd;stroke:none;stroke-width:2;stroke-linecap:butt;stroke-linejoin:round;stroke-miterlimit:4;stroke-dasharray:none;stroke-opacity:1"
     d="M 11.029297 2.0019531 A 2 2 0 0 0 9.0292969 4.0019531 A 2 2 0 0 0 11.029297 6.0019531 A 2 2 0 0 0 13.029297 4.0019531 A 2 2 0 0 0 11.029297 2.0019531 z M 11.029297 3.0019531 A 1 1 0 0 1 12.029297 4.0019531 A 1 1 0 0 1 11.029297 5.0019531 A 1 1 0 0 1 10.029297 4.0019531 A 1 1 0 0 1 11.029297 3.0019531 z M 8.1035156 5.0664062 L 5.4472656 6.5996094 A 2 2 0 0 0 3.0234375 6.2675781 A 2 2 0 0 0 2.2910156 9 A 2 2 0 0 0 5.0234375 9.7324219 A 2 2 0 0 0 5.4589844 9.3886719 L 5.453125 9.4003906 L 8.1074219 10.931641 L 8.6074219 10.066406 L 5.9511719 8.5332031 L 5.9433594 8.5488281 A 2 2 0 0 0 5.9492188 7.4648438 L 8.6035156 5.9316406 L 8.1035156 5.0664062 z M 4 7 A 1 1 0 0 1 4.8886719 7.5 A 1 1 0 0 1 4.5234375 8.8652344 A 1 1 0 0 1 3.15625 8.5 A 1 1 0 0 1 3.5234375 7.1328125 A 1 1 0 0 1 4 7 z M 11.029297 10.001953 A 2 2 0 0 0 9.0292969 12.001953 A 2 2 0 0 0 11.029297 14.001953 A 2 2 0 0 0 13.029297 12.001953 A 2 2 0 0 0 11.029297 10.001953 z M 11.029297 11.001953 A 1 1 0 0 1 12.029297 12.001953 A 1 1 0 0 1 11.029297 13.001953 A 1 1 0 0 1 10.029297 12.001953 A 1 1 0 0 1 11.029297 11.001953 z " />
</svg>
